X:1
T: The Melodious Foot of the Glen
T: 2nd setting
R:Reel
Q: 232
K:D
M:4/4
L:1/8
AF|D2 FA A2 FA|Ad fd ed fd|D2 FA A2 FA|Bd AF ED EF|
D2 FA A2 FA|Ad fd ed fd|B2 AF AB de|fa fd e2 d2|
|:fa a2 af df|ge fd eB B2|fa a2 af df|g2 fg e2 d2|
fa a2 af df|ge fd eB B2|B2 AF AB de|fa fd ed BA:|
D2 FA A2 FA|Ad fd ed fd|D2 FA A2 FA|Bd AF ED EF|
D2 FA A2 FA|Ad fd ed fd|B2 AF AB de|fa fe d2||
